X: 154
T: Miss Baird's Strathspey
C: William Shepherd (17??-1812)
R: strathspey
B: William Shepherd "2nd Collection" 1800 p.15 #4
F: http://imslp.org/wiki/File:PMLP73094-Shepherd_Collections_HMT.pdf
Z: 2012 John Chambers <jc:trillian.mit.edu>
M: C
L: 1/16
K: Dm
d2 |\
D3EF3G Ad3 Td4 | c3dc3G (EF).G.F E3C |\
D3EF3G Ad3 Td4 | e3b (ag).f.e fd3d3F |
D3EF3G Ad3 Td4 | c3dc3G (EF).G.F E3C |\
D3EF3G Ad3 Td4 | a3f (ag).f.e f2Td2 d2fg ||
a3df3d ad3 Tf4 | eg3-Tg3f (ef).g.f ec3 |\
a3df3d ad3 Tf4 | (ef).g.e (ag).f.e fd3-Td3f |
a3df3d ad3 Tf4 | eg3-Tg3f (ef).g.f ec3 |\
a3fd3A d3BA3F | TG3B (AG).F.E F2D2TD2 |]
